Obsidian/status/16s/keepassx-locked.svg

<svg height="16" width="16" xmlns="http://www.w3.org/2000/svg"><g fill="#d3dae3"><path d="m11 1a4 4 0 0 0 -4 4 4 4 0 0 0 .5566406 2.0273438l-.6054687.6054687-1.4160157 1.4140625-4.2421874 4.244141c-.39180005.391-.39180005 1.024015 0 1.416015.3916999.391 1.0243156.391 1.4160156 0l.7070312-.707031h1.5839844v-1.583984l.4160156-.416016h1.5839844v-1.486328l1.3652344-1.466797.6054687-.6054688a4 4 0 0 0 2.0292969.5585938 4 4 0 0 0 4-4 4 4 0 0 0 -4-4zm1 2a1 1 0 0 1 1 1 1 1 0 0 1 -1 1 1 1 0 0 1 -1-1 1 1 0 0 1 1-1z"/><path d="m2.00085 3.0986c-.2556 0-.5112.0971-.707.293-.3918.3917-.3918 1.0223 0 1.414l4.2422 4.2424 1.416-1.414-4.2422-4.2424c-.1959-.1959-.4534-.293-.709-.293zm6.365 5.9494-1.365 1.465 4.193 4.193c.392.392 1.023.392 1.414 0 .392-.392.392-1.024 0-1.416z" opacity=".3"/><path d="m13 9.000372c-1.108 0-2 .91085-2 2.0312v.96875h-1v4h6v-4h-1v-.96875c0-1.1199-.892-2.0312-2-2.0312zm0 1c.554 0 1 .4424 1 1v1h-2v-1c0-.5576.446-1 1-1z"/></g></svg>

<?xml version="1.0" encoding="UTF-8" standalone="no"?>
<svg
   xmlns:dc="http://purl.org/dc/elements/1.1/"
   xmlns:cc="http://creativecommons.org/ns#"
   xmlns:rdf="http://www.w3.org/1999/02/22-rdf-syntax-ns#"
   xmlns:svg="http://www.w3.org/2000/svg"
   xmlns="http://www.w3.org/2000/svg"
   id="svg9"
   version="1"
   height="16"
   width="16">
  <metadata
     id="metadata13">
    <rdf:RDF>
      <cc:Work
         rdf:about="">
        <dc:format>image/svg+xml</dc:format>
        <dc:type
           rdf:resource="http://purl.org/dc/dcmitype/StillImage" />
        <dc:title></dc:title>
      </cc:Work>
    </rdf:RDF>
  </metadata>
  <defs
     id="defs3">
    <style
       type="text/css"
       id="current-color-scheme">
   .ColorScheme-Text { color:#d3dae3; } .ColorScheme-Highlight { color:#5294e2; }
  </style>
  </defs>
  <path
     id="path5"
     d="M 11 1 A 4 4 0 0 0 7 5 A 4 4 0 0 0 7.5566406 7.0273438 L 6.9511719 7.6328125 L 5.5351562 9.046875 L 1.2929688 13.291016 C 0.90116875 13.682016 0.90116875 14.315031 1.2929688 14.707031 C 1.6846687 15.098031 2.3172844 15.098031 2.7089844 14.707031 L 3.4160156 14 L 5 14 L 5 12.416016 L 5.4160156 12 L 7 12 L 7 10.513672 L 8.3652344 9.046875 L 8.9707031 8.4414062 A 4 4 0 0 0 11 9 A 4 4 0 0 0 15 5 A 4 4 0 0 0 11 1 z M 12 3 A 1 1 0 0 1 13 4 A 1 1 0 0 1 12 5 A 1 1 0 0 1 11 4 A 1 1 0 0 1 12 3 z"
     class="ColorScheme-Text"
     style="fill:currentColor" />
  <path
     id="path7"
     d="m 2.00085,3.0986 c -0.2556,0 -0.5112,0.0971 -0.707,0.293 -0.3918,0.3917 -0.3918,1.0223 0,1.414 l 4.2422,4.2424 1.416,-1.414 -4.2422,-4.2424 c -0.1959,-0.1959 -0.4534,-0.293 -0.709,-0.293 z m 6.365,5.9494 -1.365,1.465 4.193,4.193 c 0.392,0.392 1.023,0.392 1.414,0 0.392,-0.392 0.392,-1.024 0,-1.416 z"
     class="ColorScheme-Text"
     style="opacity:0.3;fill:currentColor" />
  <path
     style="color:#d3dae3;fill:currentColor"
     class="ColorScheme-Text"
     d="m 13,9.000372 c -1.108,0 -2,0.91085 -2,2.0312 v 0.96875 h -1 v 4 h 6 v -4 h -1 v -0.96875 c 0,-1.1199 -0.892,-2.0312 -2,-2.0312 z m 0,1 c 0.554,0 1,0.4424 1,1 v 1 h -2 v -1 c 0,-0.5576 0.446,-1 1,-1 z"
     id="path8" />
</svg>
